public/images/home/php.svg

<svg width="100" height="52" viewBox="0 0 100 52" fill="none" xmlns="http://www.w3.org/2000/svg">
<path d="M50 51.6968C77.6142 51.6968 100 40.1241 100 25.8484C100 11.5727 77.6142 0 50 0C22.3858 0 0 11.5727 0 25.8484C0 40.1241 22.3858 51.6968 50 51.6968Z" fill="#8993BE"/>
<path fill-rule="evenodd" clip-rule="evenodd" d="M14.041 41.1534L19.5207 13.6043H32.1914C37.6707 13.9445 40.4105 16.6651 40.4105 21.4271C40.4105 29.5897 33.9039 34.3513 28.0816 34.0111H21.9179L20.548 41.1534H14.041ZM23.2875 28.9097L25 18.7061H29.4519C31.8492 18.7061 33.5613 19.7264 33.5613 21.7669C33.2191 27.5492 30.4793 28.5694 27.3972 28.9097H23.2879H23.2875ZM39.1375 34.0111L44.6168 6.46234H51.1238L49.7539 13.6043H55.9179C61.3976 13.9445 63.4523 16.6651 62.7675 20.0666L60.3703 34.0111H53.5211L55.9183 21.4271C56.2605 19.7264 56.2605 18.7061 53.8636 18.7061H48.7265L45.6445 34.0111H39.1375ZM59.9316 41.1534L65.4109 13.6043H78.082C83.5617 13.9445 86.3015 16.6651 86.3015 21.4271C86.3015 29.5897 79.7945 34.3513 73.9726 34.0111H67.8082L66.4382 41.1534H59.9316ZM69.1777 28.9097L70.8902 18.7061H75.3425C77.7398 18.7061 79.4519 19.7264 79.4519 21.7669C79.1097 27.5492 76.3699 28.5694 73.2879 28.9097H69.1781H69.1777Z" fill="#232531"/>
</svg>

<svg xmlns="http://www.w3.org/2000/svg" width="100" height="52" fill="none" xmlns:v="https://vecta.io/nano"><path d="M50 51.697c27.614 0 50-11.573 50-25.848S77.614 0 50 0 0 11.573 0 25.848s22.386 25.848 50 25.848z" fill="#8993be"/><path fill-rule="evenodd" d="M14.041 41.153l5.48-27.549h12.671c5.479.34 8.219 3.061 8.219 7.823 0 8.163-6.507 12.924-12.329 12.584h-6.164l-1.37 7.142h-6.507zm9.247-12.244L25 18.706h4.452c2.397 0 4.109 1.02 4.109 3.061-.342 5.782-3.082 6.803-6.164 7.143h-4.109 0zm15.85 5.101l5.479-27.549h6.507l-1.37 7.142h6.164c5.48.34 7.534 3.061 6.85 6.462L60.37 34.011h-6.849l2.397-12.584c.342-1.701.342-2.721-2.055-2.721h-5.137l-3.082 15.305h-6.507zm20.794 7.142l5.479-27.549h12.671c5.48.34 8.22 3.061 8.22 7.823 0 8.163-6.507 12.924-12.329 12.584h-6.164l-1.37 7.142h-6.507zm9.246-12.244l1.712-10.204h4.452c2.397 0 4.109 1.02 4.109 3.061-.342 5.782-3.082 6.803-6.164 7.143h-4.11 0z" fill="#232531"/></svg>
